svg/Mapbox-maki/ice-cream-24.svg

<?xml version="1.0" encoding="UTF-8" standalone="no"?>
<!-- Generator: Adobe Illustrator 15.1.0, SVG Export Plug-In . SVG Version: 6.00 Build 0)  -->

<svg
   xmlns:dc="http://purl.org/dc/elements/1.1/"
   xmlns:cc="http://creativecommons.org/ns#"
   xmlns:rdf="http://www.w3.org/1999/02/22-rdf-syntax-ns#"
   xmlns:svg="http://www.w3.org/2000/svg"
   xmlns="http://www.w3.org/2000/svg"
   xmlns:sodipodi="http://sodipodi.sourceforge.net/DTD/sodipodi-0.dtd"
   xmlns:inkscape="http://www.inkscape.org/namespaces/inkscape"
   version="1.1"
   id="svg4460"
   inkscape:version="0.48.4 r"
   sodipodi:docname="ice-cream-24.svg"
   x="0px"
   y="0px"
   width="24px"
   height="24px"
   viewBox="-402.5 403.5 24 24"
   enable-background="new -402.5 403.5 24 24"
   xml:space="preserve"><metadata
     id="metadata25"><rdf:RDF><cc:Work
         rdf:about=""><dc:format>image/svg+xml</dc:format><dc:type
           rdf:resource="http://purl.org/dc/dcmitype/StillImage" /></cc:Work></rdf:RDF></metadata><defs
     id="defs23" /><sodipodi:namedview
     pagecolor="#ffffff"
     bordercolor="#666666"
     borderopacity="1"
     objecttolerance="10"
     gridtolerance="10"
     guidetolerance="10"
     inkscape:pageopacity="0"
     inkscape:pageshadow="2"
     inkscape:window-width="927"
     inkscape:window-height="618"
     id="namedview21"
     showgrid="false"
     inkscape:zoom="9.8333333"
     inkscape:cx="-2.9491525"
     inkscape:cy="12"
     inkscape:window-x="0"
     inkscape:window-y="0"
     inkscape:window-maximized="0"
     inkscape:current-layer="g13" /><g
     id="ice-cream3_2_"><g
       id="ice-cream3_3_"
       opacity="0.3"><path
         fill="#FFFFFF"
         stroke="#FFFFFF"
         stroke-width="2"
         stroke-miterlimit="10"
         d="M-386.5,415.5h-8c0,0,2.92,7.869,3,8    c0.171,0.457,0.625,1,1,1s0.829-0.543,1-1C-389.42,423.369-386.5,415.5-386.5,415.5z"
         id="path5" /><g
         id="g7"><path
           fill="#FFFFFF"
           stroke="#FFFFFF"
           stroke-width="2"
           stroke-miterlimit="10"
           d="M-395.907,412.274     c0.047,0.206,0.106,0.407,0.188,0.598c0,0.001,0.001,0.002,0.001,0.003c0.181,0.42,0.441,0.799,0.762,1.115h4.912     c0.644-0.635,1.044-1.516,1.044-2.49c0-1.188-0.595-2.233-1.5-2.866c0,0,0,0,0,0c-0.074-0.052-0.156-0.093-0.234-0.14     c-0.098-0.058-0.196-0.114-0.299-0.162c-0.08-0.037-0.162-0.069-0.245-0.101c-0.122-0.046-0.247-0.084-0.375-0.116     c-0.071-0.018-0.142-0.038-0.214-0.052c-0.206-0.037-0.417-0.063-0.633-0.063c-1.933,0-3.5,1.567-3.5,3.5     c0,0.243,0.025,0.48,0.072,0.71C-395.923,412.232-395.913,412.252-395.907,412.274z"
           id="path9" /><path
           fill="#FFFFFF"
           stroke="#FFFFFF"
           stroke-width="2"
           stroke-miterlimit="10"
           d="M-387.5,411.5c0,0.911-0.263,1.754-0.69,2.49     h2.146c0.644-0.635,1.044-1.516,1.044-2.49c0-1.933-1.567-3.5-3.5-3.5c-0.14,0-0.276,0.017-0.412,0.032     C-388.042,408.933-387.5,410.152-387.5,411.5z"
           id="path11" /></g></g><g
       id="g13"><path
         d="M 10 4.5 C 8.067 4.5 6.5 6.067 6.5 8 C 6.5 8.243 6.5155 8.48875 6.5625 8.71875 C 6.5675 8.74075 6.58775 8.75925 6.59375 8.78125 C 6.64075 8.98725 6.69925 9.184 6.78125 9.375 C 6.96225 9.795 7.21025 10.184 7.53125 10.5 L 12.46875 10.5 C 13.11275 9.865 13.5 8.974 13.5 8 C 13.5 6.812 12.905 5.758 12 5.125 C 11.926 5.073 11.85925 5.047 11.78125 5 C 11.68325 4.942 11.57175 4.89175 11.46875 4.84375 C 11.38875 4.80675 11.30175 4.75075 11.21875 4.71875 C 11.09675 4.67275 10.97175 4.657 10.84375 4.625 C 10.77275 4.607 10.697 4.5765 10.625 4.5625 C 10.419 4.5255 10.216 4.5 10 4.5 z M 14 4.5 C 13.86 4.5 13.72975 4.51625 13.59375 4.53125 C 14.46375 5.43225 15 6.652 15 8 C 15 8.911 14.7395 9.764 14.3125 10.5 L 16.46875 10.5 C 17.11275 9.865 17.5 8.974 17.5 8 C 17.5 6.067 15.933 4.5 14 4.5 z M 8 12 C 8 12 10.92 19.869 11 20 C 11.171 20.457 11.625 21 12 21 C 12.375 21 12.829 20.457 13 20 C 13.08 19.869 16 12 16 12 L 8 12 z "
         transform="translate(-402.5,403.5)"
         id="path15"
         style="fill:#444444;fill-opacity:1" /></g></g></svg>

<svg xmlns="http://www.w3.org/2000/svg" viewBox="-402.5 403.5 24 24" enable-background="new -402.5 403.5 24 24"><g opacity=".3" fill="#fff" stroke="#fff" stroke-width="2" stroke-miterlimit="10"><path d="m-386.5 415.5h-8c0 0 2.92 7.869 3 8 .171.457.625 1 1 1s.829-.543 1-1c.08-.131 3-8 3-8z"/><path d="m-395.91 412.27c.047.206.106.407.188.598 0 .0001.0001.002.0001.003.181.42.441.799.762 1.115h4.912c.644-.635 1.044-1.516 1.044-2.49 0-1.188-.595-2.233-1.5-2.866-.074-.052-.156-.093-.234-.14-.098-.058-.196-.114-.299-.162-.08-.037-.162-.069-.245-.101-.122-.046-.247-.084-.375-.116-.071-.018-.142-.038-.214-.052-.206-.037-.417-.063-.633-.063-1.933 0-3.5 1.567-3.5 3.5 0 .243.025.48.072.71.005.022.015.042.021.064z"/><path d="m-387.5 411.5c0 .911-.263 1.754-.69 2.49h2.146c.644-.635 1.044-1.516 1.044-2.49 0-1.933-1.567-3.5-3.5-3.5-.14 0-.276.017-.412.032.87.901 1.412 2.12 1.412 3.468z"/></g><path d="m10 4.5c-1.933 0-3.5 1.567-3.5 3.5 0 .243.016.489.063.719.005.022.025.04.031.063.047.206.106.403.188.594.181.42.429.809.75 1.125h4.938c.644-.635 1.031-1.526 1.031-2.5 0-1.188-.595-2.242-1.5-2.875-.074-.052-.141-.078-.219-.125-.098-.058-.21-.108-.313-.156-.08-.037-.167-.093-.25-.125-.122-.046-.247-.062-.375-.094-.071-.018-.147-.048-.219-.063-.206-.037-.409-.063-.625-.063m4 0c-.14 0-.27.016-.406.031.87.901 1.406 2.121 1.406 3.469 0 .911-.261 1.764-.688 2.5h2.156c.644-.635 1.031-1.526 1.031-2.5 0-1.933-1.567-3.5-3.5-3.5m-6 7.5c0 0 2.92 7.869 3 8 .171.457.625 1 1 1 .375 0 .829-.543 1-1 .08-.131 3-8 3-8h-8" transform="translate(-402.5 403.5)" fill="#444"/></svg>
